svg/icon/aion.svg

<svg xmlns="http://www.w3.org/2000/svg" xmlns:xlink="http://www.w3.org/1999/xlink" width="32" height="32" viewBox="0 0 32 32"><defs><linearGradient id="aion-c" x1="50%" x2="50%" y1="0%" y2="100%"><stop offset="0%" stop-color="#FFF" stop-opacity=".5"/><stop offset="100%" stop-opacity=".5"/></linearGradient><circle id="aion-b" cx="16" cy="15" r="15"/><filter id="aion-a" width="111.7%" height="111.7%" x="-5.8%" y="-4.2%" filterUnits="objectBoundingBox"><feOffset dy=".5" in="SourceAlpha" result="shadowOffsetOuter1"/><feGaussianBlur in="shadowOffsetOuter1" result="shadowBlurOuter1" stdDeviation=".5"/><feComposite in="shadowBlurOuter1" in2="SourceAlpha" operator="out" result="shadowBlurOuter1"/><feColorMatrix in="shadowBlurOuter1" values="0 0 0 0 0 0 0 0 0 0 0 0 0 0 0 0 0 0 0.199473505 0"/></filter><filter id="aion-d" width="115.9%" height="115.9%" x="-8%" y="-5.7%" filterUnits="objectBoundingBox"><feOffset dy=".5" in="SourceAlpha" result="shadowOffsetOuter1"/><feGaussianBlur in="shadowOffsetOuter1" result="shadowBlurOuter1" stdDeviation=".5"/><feColorMatrix in="shadowBlurOuter1" result="shadowMatrixOuter1" values="0 0 0 0 0 0 0 0 0 0 0 0 0 0 0 0 0 0 0.204257246 0"/><feMerge><feMergeNode in="shadowMatrixOuter1"/><feMergeNode in="SourceGraphic"/></feMerge></filter></defs><g fill="none" fill-rule="evenodd"><g fill-rule="nonzero"><use fill="#000" filter="url(#aion-a)" xlink:href="#aion-b"/><use fill="#00BFEC" fill-rule="evenodd" xlink:href="#aion-b"/><use fill="url(#aion-c)" fill-rule="evenodd" style="mix-blend-mode:soft-light" xlink:href="#aion-b"/><circle cx="16" cy="15" r="14.5" stroke="#000" stroke-opacity=".097"/></g><g fill="#FFF" fill-rule="nonzero" filter="url(#aion-d)" transform="translate(5 4)"><path d="M10.9712739,18.1501392 C7.01449682,18.1501392 3.79521019,14.9513671 3.79521019,11.0197722 C3.79521019,7.08789873 7.01449682,3.88926582 10.9712739,3.88926582 C14.9281911,3.88926582 18.1473376,7.08803797 18.1473376,11.0197722 C18.1473376,14.9513671 14.9281911,18.1501392 10.9712739,18.1501392 Z M10.9712739,5.28612658 C7.7895414,5.28612658 5.20096815,7.85817722 5.20096815,11.0196329 C5.20096815,14.1813671 7.7895414,16.7531392 10.9712739,16.7531392 C14.1530064,16.7531392 16.7415796,14.1812278 16.7415796,11.0196329 C16.7415796,7.85817722 14.1530064,5.28612658 10.9712739,5.28612658 Z M15.9959618,2.87113924 C14.4883312,1.95089873 12.7508917,1.46453165 10.9712739,1.46453165 C9.33682803,1.46453165 7.72326115,1.87905063 6.30461146,2.66297468 L5.62121019,1.44225316 C7.2482293,0.542759494 9.09833121,0.0673924051 10.9712739,0.0673924051 C13.0104076,0.0673924051 15.0027389,0.625189873 16.7321911,1.68063291 L15.9959618,2.87113924 Z M18.0908662,19.3806076 L17.1822803,18.314443 C19.3461274,16.4933165 20.5872357,13.8347975 20.5872357,11.0196329 L21.9932739,11.0196329 C21.9931338,14.2459747 20.5708408,17.2931139 18.0908662,19.3806076 Z M10.9712739,21.9715949 C8.4142293,21.9715949 5.92248408,21.0818481 3.95467516,19.4663797 L4.85050955,18.3896329 C6.56678981,19.7988861 8.74058599,20.5748734 10.9712739,20.5748734 C12.531172,20.5748734 14.0186242,20.2154937 15.3928535,19.5071772 L16.0401019,20.7473924 C14.4865096,21.548443 12.7333758,21.9715949 10.9712739,21.9715949 Z"/><path d="M20.3505605,8.4253038 C19.9810446,7.10279747 19.3430446,5.89474684 18.4540764,4.83443038 L19.3543949,4.08921519 C20.3502803,5.27721519 21.0652102,6.63132911 21.4792866,8.11410127 L20.3505605,8.4253038 Z M1.86047134,16.976481 C0.686764331,15.2071519 0.0665605096,13.1473671 0.0665605096,11.0196329 C0.0665605096,8.05756962 1.24671338,5.2916962 3.3895414,3.23121519 L4.20438217,4.06818987 C2.29164331,5.907 1.23802548,8.37559494 1.23802548,11.0196329 C1.23802548,12.9185949 1.79152866,14.7571266 2.83870064,16.335557 L1.86047134,16.976481 Z" opacity=".5"/></g></g></svg>

<svg xmlns="http://www.w3.org/2000/svg" xmlns:xlink="http://www.w3.org/1999/xlink" width="32" height="32" viewBox="0 0 32 32"><defs><linearGradient id="c" x1="50%" x2="50%" y1="0%" y2="100%"><stop offset="0%" stop-color="#FFF" stop-opacity=".5"/><stop offset="100%" stop-opacity=".5"/></linearGradient><circle id="b" cx="16" cy="15" r="15"/><filter id="a" width="111.7%" height="111.7%" x="-5.8%" y="-4.2%" filterUnits="objectBoundingBox"><feOffset dy=".5" in="SourceAlpha" result="shadowOffsetOuter1"/><feGaussianBlur in="shadowOffsetOuter1" result="shadowBlurOuter1" stdDeviation=".5"/><feComposite in="shadowBlurOuter1" in2="SourceAlpha" operator="out" result="shadowBlurOuter1"/><feColorMatrix in="shadowBlurOuter1" values="0 0 0 0 0 0 0 0 0 0 0 0 0 0 0 0 0 0 0.199473505 0"/></filter><filter id="d" width="115.9%" height="115.9%" x="-8%" y="-5.7%" filterUnits="objectBoundingBox"><feOffset dy=".5" in="SourceAlpha" result="shadowOffsetOuter1"/><feGaussianBlur in="shadowOffsetOuter1" result="shadowBlurOuter1" stdDeviation=".5"/><feColorMatrix in="shadowBlurOuter1" result="shadowMatrixOuter1" values="0 0 0 0 0 0 0 0 0 0 0 0 0 0 0 0 0 0 0.204257246 0"/><feMerge><feMergeNode in="shadowMatrixOuter1"/><feMergeNode in="SourceGraphic"/></feMerge></filter></defs><g fill="none"><use fill="#000" filter="url(#a)" xlink:href="#b"/><use fill="#00BFEC" fill-rule="evenodd" xlink:href="#b"/><use fill="url(#c)" fill-rule="evenodd" style="mix-blend-mode:soft-light" xlink:href="#b"/><circle cx="16" cy="15" r="14.5" stroke="#000" stroke-opacity=".097"/><g fill="#FFF" filter="url(#d)" transform="translate(5 4)"><path d="M10.971 18.15c-3.957 0-7.176-3.199-7.176-7.13 0-3.932 3.22-7.13 7.176-7.13 3.957 0 7.176 3.198 7.176 7.13 0 3.931-3.219 7.13-7.176 7.13zm0-12.864c-3.181 0-5.77 2.572-5.77 5.734 0 3.161 2.589 5.733 5.77 5.733 3.182 0 5.77-2.572 5.77-5.733 0-3.162-2.588-5.734-5.77-5.734zm5.025-2.415a9.638 9.638 0 0 0-5.025-1.406 9.67 9.67 0 0 0-4.666 1.198l-.684-1.22a11.083 11.083 0 0 1 5.35-1.376c2.04 0 4.032.558 5.761 1.614l-.736 1.19zm2.095 16.51l-.909-1.067a9.519 9.519 0 0 0 3.405-7.294h1.406c0 3.226-1.422 6.273-3.902 8.36zm-7.12 2.59c-2.557 0-5.049-.89-7.016-2.505l.896-1.076a9.667 9.667 0 0 0 6.12 2.185c1.56 0 3.048-.36 4.422-1.068l.647 1.24a11.107 11.107 0 0 1-5.069 1.225z"/><path d="M20.35 8.425a9.558 9.558 0 0 0-1.896-3.59l.9-.746a10.71 10.71 0 0 1 2.125 4.025l-1.128.311zM1.86 16.976A10.742 10.742 0 0 1 .067 11.02c0-2.962 1.18-5.728 3.323-7.789l.814.837a9.564 9.564 0 0 0-2.966 6.952c0 1.899.554 3.737 1.6 5.316l-.978.64z" opacity=".5"/></g></g></svg>
